server/frontend/packages/ui/static/icons/otp-auth.svg

<svg width="48" height="48" viewBox="0 0 48 48" fill="none" xmlns="http://www.w3.org/2000/svg">
<path fill-rule="evenodd" clip-rule="evenodd" d="M12.2676 5.28718C12.1393 5.46852 12.0079 5.65441 11.863 5.79212C10.4105 8.32665 9.552 10.9335 9.26148 13.8379C9.2271 14.1817 9.20672 14.5358 9.1862 14.8922C9.14663 15.5797 9.10655 16.2761 8.96445 16.9251C8.95662 16.9297 8.94885 16.9343 8.94107 16.939C8.92552 16.9483 8.90998 16.9577 8.89399 16.9662C8.74057 17.048 8.41186 17.0353 8.16196 17.0257C8.08643 17.0228 8.01811 17.0201 7.96399 17.0205C7.77763 17.0216 7.59239 17.0217 7.4086 17.0218C4.78541 17.0229 2.45626 17.0239 1.35086 20.0509C0.900196 21.2849 0.992927 27.1274 1.04473 30.3914C1.05685 31.1549 1.06673 31.7772 1.06689 32.1666C1.06726 33.0667 1.05633 33.9717 1.04537 34.8784C1.02157 36.8495 0.997661 38.8285 1.08947 40.7816C1.04946 41.7072 1.06707 42.6302 1.08476 43.5555L1.087 43.673C1.24495 44.7337 1.57408 45.6151 2.29569 46.4294C3.26491 47.5227 4.28292 47.8486 5.70618 47.9282C7.45021 48.025 9.22205 48.0031 10.9851 47.9814C11.7432 47.972 12.4996 47.9627 13.2515 47.9628L36.9511 47.9615C37.4124 47.9615 37.8807 47.9701 38.3521 47.9787C39.6688 48.0027 41.0094 48.0271 42.2872 47.8672C43.2844 47.7423 43.9792 47.4773 44.7329 46.7966C45.9032 45.7396 46.265 44.3805 46.3421 42.8583C46.3409 42.2987 46.3343 41.7411 46.3062 41.1819C46.4284 39.6894 46.3941 38.1293 46.3602 36.5902C46.3449 35.8975 46.3297 35.209 46.3289 34.5328L46.3108 21.3691C46.1377 20.3085 45.8691 19.6007 45.2818 18.6942C45.0418 18.5442 44.8325 18.336 44.6205 18.1253C44.3965 17.9026 44.1696 17.677 43.9005 17.514C42.8596 16.8833 41.3255 16.9223 39.9479 16.9574C39.456 16.97 38.984 16.982 38.5616 16.9628L38.4149 16.8957C38.2084 16.4396 38.1901 15.5755 38.1747 14.8513C38.1689 14.5753 38.1635 14.3196 38.1482 14.1145C38.0115 13.7003 37.9417 13.2559 37.8718 12.8111C37.8154 12.4516 37.7589 12.0918 37.6669 11.7477C37.0706 9.5151 36.0363 7.49865 34.7757 5.57681C32.1734 2.4671 29.3498 0.432634 25.1754 0.072307C21.4908 -0.245781 17.3479 0.448706 14.4611 2.89274C13.7296 3.51206 13.0957 4.23955 12.4929 4.98221C12.4175 5.0751 12.3431 5.18035 12.2676 5.28718ZM14.2743 16.742C14.2299 15.7755 14.2218 14.7906 14.3305 13.8288C14.749 11.2465 15.7424 8.71879 17.9404 7.14438C20.1692 5.54788 23.1815 5.19143 25.8331 5.64847C28.0703 6.03414 30.0376 7.17426 31.346 9.04916C32.2546 10.3511 33.0722 12.4143 33.0281 14.0202C33.1825 14.814 33.1556 15.7062 33.1303 16.5414C33.1254 16.7046 33.1205 16.8655 33.1171 17.0232C29.8563 17.0688 26.5932 17.0593 23.3309 17.0498C22.0346 17.046 20.7385 17.0422 19.4426 17.0419C19.1784 17.0418 18.7754 17.0531 18.3077 17.0661C16.9316 17.1044 14.9959 17.1584 14.3912 16.986C14.3832 16.9722 14.3751 16.9587 14.367 16.9454C14.3278 16.8804 14.2908 16.8188 14.2743 16.742ZM25.0157 34.9896C25.0424 35.5428 25.0691 36.0949 24.5742 36.5524C24.3195 36.763 23.8493 36.8862 23.5231 36.8697C23.2601 36.8561 23.016 36.723 22.8433 36.5277C22.2498 35.8577 22.2188 34.8625 22.2788 34.0181C22.2144 33.7665 22.1569 33.707 21.9834 33.5278L21.9813 33.5257C21.9745 33.5236 21.9678 33.5216 21.961 33.5196C21.9476 33.5155 21.9342 33.5115 21.9208 33.5071C21.1451 33.257 20.4205 32.3628 20.0713 31.6531C19.5488 30.5916 19.4622 29.2153 19.8637 28.1026C19.911 27.971 19.9646 27.8422 20.0246 27.7161C20.0845 27.5897 20.1506 27.4668 20.2227 27.3473C20.2948 27.2275 20.3727 27.1116 20.4563 26.9995C20.5398 26.8877 20.6287 26.7801 20.7229 26.6768C20.8171 26.5735 20.9162 26.4752 21.0201 26.3818C21.124 26.2884 21.2323 26.2003 21.3449 26.1176C21.4576 26.0349 21.574 25.9579 21.6942 25.8864C21.8144 25.8153 21.9379 25.7502 22.0645 25.6911C22.1836 25.6364 22.3051 25.5878 22.429 25.5452C22.553 25.5026 22.6787 25.4662 22.8063 25.436C22.9338 25.4061 23.0626 25.3826 23.1925 25.3656C23.3225 25.3485 23.4529 25.338 23.5839 25.3338C23.715 25.33 23.8459 25.3326 23.9767 25.3417C24.1071 25.3507 24.2371 25.3664 24.3665 25.3886C24.4956 25.4106 24.6234 25.4391 24.7497 25.4739C24.8758 25.5091 25 25.5503 25.1222 25.5976C25.2464 25.6445 25.3679 25.6977 25.4865 25.757C25.6052 25.8161 25.7207 25.8811 25.8331 25.952C25.9455 26.0226 26.054 26.0987 26.1586 26.1803C26.2633 26.2618 26.3637 26.3484 26.4599 26.4399C26.556 26.5313 26.6474 26.6274 26.7339 26.7279C26.8204 26.8285 26.9018 26.9331 26.9779 27.0419C27.054 27.1507 27.1244 27.2629 27.1893 27.3786C27.2544 27.4943 27.3134 27.6129 27.3665 27.7346C27.8375 28.8114 27.8931 30.1911 27.46 31.2885C27.0823 32.2461 26.3649 32.7884 25.8202 33.2001C25.4996 33.4425 25.2388 33.6396 25.1424 33.8496C24.9779 34.2082 24.9968 34.5992 25.0157 34.9896Z" fill="url(#paint0_linear_2428_25556)"/>
<defs>
<linearGradient id="paint0_linear_2428_25556" x1="23.696" y1="0" x2="23.696" y2="48" gradientUnits="userSpaceOnUse">
<stop stop-color="#DEDEDE"/>
<stop offset="1" stop-color="#777777"/>
</linearGradient>
</defs>
</svg>

<svg width="48" height="48" fill="none" xmlns="http://www.w3.org/2000/svg"><path fill-rule="evenodd" clip-rule="evenodd" d="M12.268 5.287c-.129.182-.26.367-.405.505-1.452 2.535-2.311 5.142-2.602 8.046-.034.344-.054.698-.075 1.054-.04.688-.08 1.384-.222 2.033l-.023.014c-.015.01-.031.019-.047.027-.153.082-.482.07-.732.06-.076-.003-.144-.006-.198-.006-.186.002-.372.002-.555.002-2.624 0-4.953.002-6.058 3.029-.45 1.234-.358 7.076-.306 10.34.012.764.022 1.386.022 1.776 0 .9-.01 1.805-.022 2.711-.023 1.971-.047 3.95.044 5.904-.04.925-.022 1.848-.004 2.774l.002.117c.158 1.06.487 1.942 1.209 2.756.969 1.094 1.987 1.42 3.41 1.5 1.744.096 3.516.074 5.28.052.757-.009 1.514-.018 2.265-.018l23.7-.002c.461 0 .93.01 1.401.018 1.317.024 2.657.048 3.935-.112.997-.125 1.692-.39 2.446-1.07 1.17-1.057 1.532-2.416 1.61-3.939a34.842 34.842 0 00-.037-1.676c.122-1.493.088-3.053.054-4.592a99.056 99.056 0 01-.031-2.057l-.018-13.164c-.173-1.06-.442-1.768-1.03-2.675-.24-.15-.448-.358-.66-.569-.224-.222-.451-.448-.72-.611-1.041-.63-2.576-.592-3.953-.557-.492.013-.964.025-1.386.006l-.147-.067c-.207-.456-.225-1.32-.24-2.045a14.971 14.971 0 00-.027-.737c-.137-.414-.206-.858-.276-1.303a10.33 10.33 0 00-.205-1.063c-.596-2.233-1.63-4.25-2.891-6.171-2.603-3.11-5.426-5.144-9.6-5.505-3.685-.318-7.828.377-10.715 2.82-.731.62-1.365 1.348-1.968 2.09a5.84 5.84 0 00-.225.305zm2.006 11.455c-.044-.967-.052-1.951.057-2.913.418-2.583 1.411-5.11 3.61-6.685 2.228-1.596 5.24-1.953 7.892-1.496 2.237.386 4.205 1.526 5.513 3.401.909 1.302 1.726 3.365 1.682 4.971.154.794.128 1.686.102 2.521-.005.164-.01.325-.013.482-3.26.046-6.524.036-9.786.027-1.296-.004-2.593-.008-3.888-.008-.265 0-.668.011-1.135.024-1.376.038-3.312.092-3.917-.08a2.178 2.178 0 00-.024-.04.657.657 0 01-.093-.204zM25.016 34.99c.026.553.053 1.105-.442 1.562-.255.211-.725.334-1.05.318a.99.99 0 01-.68-.342c-.594-.67-.625-1.666-.565-2.51-.065-.252-.122-.311-.296-.49l-.002-.002a1.564 1.564 0 00-.02-.006l-.04-.013c-.776-.25-1.5-1.144-1.85-1.854-.522-1.061-.609-2.438-.207-3.55a4.224 4.224 0 011.156-1.721 4.24 4.24 0 011.044-.69 3.95 3.95 0 011.913-.35 3.888 3.888 0 011.145.256 3.877 3.877 0 01.711.354 3.91 3.91 0 01.627.488 3.985 3.985 0 01.906 1.295c.471 1.076.527 2.456.094 3.553-.378.958-1.095 1.5-1.64 1.912-.32.242-.581.44-.678.65-.164.358-.145.75-.126 1.14z" fill="url(#prefix__paint0_linear_2428_25556)"/><defs><linearGradient id="prefix__paint0_linear_2428_25556" x1="23.696" y1="0" x2="23.696" y2="48" gradientUnits="userSpaceOnUse"><stop stop-color="#DEDEDE"/><stop offset="1" stop-color="#777"/></linearGradient></defs></svg>
